include/LD/assets/icons/action/log_a_call.svg

<?xml version="1.0"?><svg xmlns="http://www.w3.org/2000/svg" width="52" height="52" viewBox="0 0 52 52"><path fill="#fff" d="m42.9 2h-30.2c-2.7 0-4.9 2.4-4.9 4.8v1.6h-1.6c-1.8 0-3.2 1.4-3.2 3.2s1.4 3.2 3.2 3.2h1.6v8h-1.6c-1.8 0-3.2 1.4-3.2 3.2s1.4 3.2 3.2 3.2h1.6v8h-1.6c-1.8 0-3.2 1.4-3.2 3.2 0 1.8 1.4 3.2 3.2 3.2h1.6v1.6c0 2.4 2.2 4.8 4.9 4.8h30.2c2.7 0 5.1-2.4 5.1-5v-38.4c0-2.7-2.4-4.6-5.1-4.6z m-2.9 32.2l-2.2 2.2c-0.5 0.5-1.2 0.8-1.8 0.7-5.3-0.3-10.3-2.7-13.8-6.2s-5.9-8.5-6.2-13.8c0-0.7 0.2-1.4 0.7-1.8l2.2-2.2c1-1 2.8-1 3.7 0.2l2.1 2.6c0.7 0.9 0.7 2.1 0.1 3l-1.8 2.6c-0.2 0.3-0.2 0.8 0.1 1l3.7 4.1 4.1 3.7c0.3 0.3 0.7 0.3 1 0.1l2.5-1.8c0.9-0.6 2.2-0.6 3.1 0.1l2.6 2.1c0.9 0.6 1 2.4-0.1 3.4z"></path></svg>

<svg xmlns="http://www.w3.org/2000/svg" x="0px" y="0px"
	 width="52px" height="52px" viewBox="0 0 52 52" enable-background="new 0 0 52 52" xml:space="preserve">
<g>
	<path fill="#FFFFFF" d="M42.9,2H12.7c-2.7,0-4.9,2.4-4.9,4.8v1.6H6.2C4.4,8.4,3,9.8,3,11.6s1.4,3.2,3.2,3.2h1.6v8H6.2
		C4.4,22.8,3,24.2,3,26s1.4,3.2,3.2,3.2h1.6v8H6.2c-1.8,0-3.2,1.4-3.2,3.2c0,1.8,1.4,3.2,3.2,3.2h1.6v1.6c0,2.4,2.2,4.8,4.9,4.8
		h30.2c2.7,0,5.1-2.4,5.1-5V6.6C48,3.9,45.6,2,42.9,2z M40,34.2l-2.2,2.2c-0.5,0.5-1.2,0.8-1.8,0.7c-5.3-0.3-10.3-2.7-13.8-6.2
		c-3.5-3.5-5.9-8.5-6.2-13.8c0-0.7,0.2-1.4,0.7-1.8l2.2-2.2c1-1,2.8-1,3.7,0.2l2.1,2.6c0.7,0.9,0.7,2.1,0.1,3L23,21.5
		c-0.2,0.3-0.2,0.8,0.1,1l3.7,4.1l4.1,3.7c0.3,0.3,0.7,0.3,1,0.1l2.5-1.8c0.9-0.6,2.2-0.6,3.1,0.1l2.6,2.1
		C41,31.4,41.1,33.2,40,34.2z"/>
</g>
</svg>
